X: 396
T: Miss Dumbreck
C:
O:Scotland
B:Keith Norman MacDonald : "The Skye collection of the best reels & strathspeys extant" : 1887
Z:Ralph Palmer
N:See also #357, in Bb.
R:Reel
M:C
L:1/8
K:A
e !segno!|: dcBA A2 ce | fece fgae | [1 dcBA A2 cA | BGEG Bcde :|
[2 agae dcBA | GEBG dBGB || A2 ce aece | aece aecA |
E2 GB ef^df | ef^df e=dcB | A2 ce aece | aece aecA |
FdEc DBCA | EFGA Bcde !segno!|| [E8A8c8] |]


